X:5
T: Trip to London
S: J.Whelan
C: John Bass
Z: B.Black
R: reel
M: 4/4
L: 1/8
K: G
E |DEFD GEDC|B,A,B,C DEFD|GFGB dG (3GFG|G=FDE FDCE |
DEFD GEDC | B,A,B,C DEFD | GFGB AGFE | DEFD G3 :|
d | gBdB GBdg | bgag edef | gBBA BcBA | GBdB A2 Bd |
gBdB GBdg | bgag edef | gd (3d^cd cd=cA | FDBA G3 :|
